packages/foundations/assets/icons/functional/images/audio & video/volume_disabled_12.svg

<svg width="12" height="12" viewBox="0 0 12 12" fill="none" xmlns="http://www.w3.org/2000/svg">
<g clip-path="url(#clip0_231_104)">
<path fill-rule="evenodd" clip-rule="evenodd" d="M9.59402 1.78374C9.87602 1.78374 10.194 1.97174 10.194 2.37074C10.194 2.50074 10.158 2.62974 10.076 2.74674L2.82802 10.0297C2.7722 10.0839 2.7061 10.1263 2.63362 10.1545C2.56114 10.1826 2.48375 10.196 2.40602 10.1937C2.2431 10.1935 2.08672 10.1296 1.97031 10.0156C1.85389 9.90162 1.78668 9.74663 1.78302 9.58374C1.78183 9.51848 1.79368 9.45363 1.8179 9.39301C1.84211 9.33239 1.87819 9.27722 1.92402 9.23074L2.72802 8.40374C1.88802 8.28074 1.18402 7.58474 1.18402 6.62374V5.42374C1.18402 4.45374 2.02602 3.60374 2.87502 3.60374H3.42802L5.08402 2.51074C5.18095 2.44409 5.2954 2.40757 5.41302 2.40574C5.70602 2.40574 6.00002 2.63974 6.00002 2.93374V5.14174L8.13802 2.99174L7.99702 2.83974C7.93573 2.78805 7.88696 2.72312 7.8544 2.64985C7.82184 2.57658 7.80632 2.49688 7.80902 2.41674C7.80902 2.08774 8.07902 1.79474 8.41902 1.79474C8.64302 1.79474 8.72502 1.86474 9.00702 2.14674L9.17202 1.95874C9.22512 1.90021 9.29046 1.8541 9.36339 1.82368C9.43633 1.79326 9.51507 1.77928 9.59402 1.78274V1.78374ZM4.80202 4.12174L4.12102 4.59174C3.86502 4.76774 3.73302 4.81474 3.59202 4.81474H2.99202C2.91235 4.81431 2.83341 4.82989 2.75988 4.86055C2.68634 4.8912 2.61972 4.93631 2.56394 4.9932C2.50817 5.0501 2.46439 5.11761 2.43521 5.19174C2.40602 5.26586 2.39201 5.3451 2.39402 5.42474V6.62274C2.39402 6.87574 2.58402 7.21074 2.99302 7.21074H3.59202C3.71202 7.21074 3.74702 7.24274 3.86202 7.28074L4.80202 6.34074V4.12174ZM5.03702 9.50174L6.00002 8.53774V9.00774C6.00251 9.09023 5.9881 9.17236 5.95768 9.24907C5.92725 9.32578 5.88145 9.39546 5.8231 9.45382C5.76474 9.51217 5.69506 9.55797 5.61835 9.5884C5.54164 9.61882 5.45951 9.63323 5.37702 9.63074C5.27202 9.63074 5.20102 9.59474 5.03702 9.50074V9.50174ZM6.84602 7.69174L8.40802 6.15374C8.34902 6.74074 8.04402 7.28074 7.59802 7.68074C7.49677 7.76788 7.36654 7.81391 7.23302 7.80974C7.10402 7.80974 7.02202 7.78574 6.84602 7.69174ZM7.80902 9.61874C7.80902 9.45374 7.87902 9.27874 8.00902 9.16074C8.48451 8.77007 8.87244 8.28368 9.14758 7.73322C9.42273 7.18276 9.57893 6.58054 9.60602 5.96574C9.60602 5.63574 9.57102 5.42574 9.45302 5.08474L10.393 4.15674C10.663 4.72074 10.793 5.34274 10.816 5.96574C10.7845 6.7538 10.5886 7.52656 10.2407 8.23437C9.8928 8.94219 9.40071 9.56941 8.79602 10.0757C8.6961 10.1666 8.56606 10.2172 8.43102 10.2177C8.07902 10.2177 7.80902 9.95974 7.80902 9.61874Z" fill="#1A1C1F"/>
</g>
<defs>
<clipPath id="clip0_231_104">
<rect width="12" height="12" fill="white"/>
</clipPath>
</defs>
</svg>

<svg xmlns="http://www.w3.org/2000/svg" width="12" height="12" fill="none"><g clip-path="url(#a)"><path fill="#1A1C1F" fill-rule="evenodd" d="M9.594 1.784c.282 0 .6.188.6.587 0 .13-.036.259-.118.376L2.828 10.03a.58.58 0 0 1-.422.164.624.624 0 0 1-.623-.61.5.5 0 0 1 .141-.353l.804-.827c-.84-.123-1.544-.82-1.544-1.78v-1.2c0-.97.842-1.82 1.691-1.82h.553L5.084 2.51a.6.6 0 0 1 .329-.105c.293 0 .587.234.587.528v2.208l2.138-2.15-.141-.152a.53.53 0 0 1-.188-.423c0-.33.27-.622.61-.622.224 0 .306.07.588.352l.165-.188a.54.54 0 0 1 .422-.176M4.802 4.122l-.681.47c-.256.176-.388.223-.529.223h-.6a.595.595 0 0 0-.598.61v1.198c0 .253.19.588.599.588h.599c.12 0 .155.032.27.07l.94-.94zm.235 5.38L6 8.538v.47a.605.605 0 0 1-.623.623c-.105 0-.176-.036-.34-.13m1.809-1.81 1.562-1.538c-.059.587-.364 1.127-.81 1.527a.53.53 0 0 1-.365.129c-.129 0-.211-.024-.387-.118m.963 1.927c0-.165.07-.34.2-.458a4.39 4.39 0 0 0 1.597-3.195c0-.33-.035-.54-.153-.881l.94-.928c.27.564.4 1.186.423 1.809a5.66 5.66 0 0 1-2.02 4.11c-.1.09-.23.141-.365.142-.352 0-.622-.258-.622-.6" clip-rule="evenodd"/></g><defs><clipPath id="a"><path fill="#fff" d="M0 0h12v12H0z"/></clipPath></defs></svg>
